assets/icons/24px/outline/email-24px.svg

<svg width="24" height="24" viewBox="0 0 24 24" fill="none" xmlns="http://www.w3.org/2000/svg">
<path d="M8 5H16C17.4425 5 18.4237 5.00212 19.1586 5.10092C19.8646 5.19584 20.1916 5.36322 20.4142 5.58579C20.6368 5.80836 20.8042 6.13538 20.8991 6.84143C20.9979 7.57625 21 8.55752 21 10V14C21 15.4425 20.9979 16.4237 20.8991 17.1586C20.8042 17.8646 20.6368 18.1916 20.4142 18.4142C20.1916 18.6368 19.8646 18.8042 19.1586 18.8991C18.4237 18.9979 17.4425 19 16 19H8C6.55752 19 5.57625 18.9979 4.84143 18.8991C4.13538 18.8042 3.80836 18.6368 3.58579 18.4142C3.36322 18.1916 3.19584 17.8646 3.10092 17.1586C3.00212 16.4237 3 15.4425 3 14V10C3 8.55752 3.00212 7.57625 3.10092 6.84143C3.19584 6.13538 3.36322 5.80836 3.58579 5.58579C3.80836 5.36322 4.13538 5.19584 4.84143 5.10092C5.57625 5.00212 6.55752 5 8 5Z" stroke="white" stroke-width="2"/>
<path d="M4 6L9.6 10.2C10.7556 11.0667 11.3333 11.5 12 11.5C12.6667 11.5 13.2444 11.0667 14.4 10.2L20 6" stroke="white" stroke-width="2"/>
</svg>

<svg width="24" height="24" fill="none" xmlns="http://www.w3.org/2000/svg"><path d="M8 5h8c1.442 0 2.424.002 3.159.1.706.096 1.033.263 1.255.486.223.222.39.55.485 1.255.099.735.101 1.717.101 3.159v4c0 1.443-.002 2.424-.1 3.159-.096.706-.263 1.033-.486 1.255-.222.223-.55.39-1.255.485-.735.099-1.716.101-3.159.101H8c-1.442 0-2.424-.002-3.159-.1-.706-.096-1.033-.263-1.255-.486-.223-.222-.39-.55-.485-1.255C3.002 16.424 3 15.443 3 14v-4c0-1.442.002-2.424.1-3.159.096-.706.263-1.033.486-1.255.222-.223.55-.39 1.255-.485C5.576 5.002 6.558 5 8 5z" stroke="#fff" stroke-width="2"/><path d="M4 6l5.6 4.2c1.156.867 1.733 1.3 2.4 1.3.667 0 1.244-.433 2.4-1.3L20 6" stroke="#fff" stroke-width="2"/></svg>
